packages/vapor/resources/icons/svg/not-group-member.svg

<svg enable-background="new 0 0 500 500" viewBox="0 0 500 500" xmlns="http://www.w3.org/2000/svg"><g transform="translate(24 150)"><path d="m133.4 192v-8.3h-116.4v-16.7c0-12.4 42.7-33.3 83.2-33.3 16.4 0 33.2 3.4 47.4 8.4 5.4-4.2 11.9-7.9 19.1-11.1-21.5-9.4-48.8-13.9-66.5-13.9-33.3 0-99.9 15.9-99.9 49.9v33.3h149.7 16.6-16.6z"/><path d="m96.5 83.9c18.4 0 33.2-15 33.2-33.6s-14.9-33.6-33.2-33.6c-18.4 0-33.2 15-33.2 33.6s14.8 33.6 33.2 33.6m0-83.9c27.5 0 49.8 22.5 49.8 50.4s-22.3 50.4-49.8 50.4-49.8-22.5-49.8-50.4 22.3-50.4 49.8-50.4"/><path d="m325.9 192v-8.3h116.4v-16.7c0-12.4-42.7-33.3-83.2-33.3-16.4 0-33.2 3.4-47.4 8.4-5.4-4.2-11.9-7.9-19.1-11.1 21.5-9.4 48.8-13.9 66.5-13.9 33.3 0 99.8 15.9 99.8 49.9v33.3h-149.6-16.6 16.6z"/><path d="m358.9 83.9c-18.4 0-33.2-15-33.2-33.6s14.9-33.6 33.2-33.6c18.4 0 33.2 15 33.2 33.6s-14.9 33.6-33.2 33.6m0-83.9c-27.5 0-49.8 22.5-49.8 50.4s22.3 50.4 49.8 50.4 49.8-22.5 49.8-50.4c-.1-27.9-22.4-50.4-49.8-50.4"/><path d="m310.6 183.7h-166.9v-16.7c0-12.4 42.9-33.3 83.5-33.3s83.4 20.8 83.5 33.3v16.7m-83.6-66.6c-33.3 0-100.1 15.9-100.1 49.9v33.3h200.3v-33.3c0-34-66.8-49.9-100.2-49.9"/><path d="m227.2 83.9c-18.4 0-33.2-15-33.2-33.6s14.9-33.6 33.2-33.6c18.4 0 33.2 15 33.2 33.6s-14.9 33.6-33.2 33.6m-.1-83.9c-27.5 0-49.8 22.5-49.8 50.4s22.3 50.4 49.8 50.4 49.8-22.5 49.8-50.4-22.3-50.4-49.8-50.4"/></g></svg>

<?xml version="1.0" encoding="utf-8"?>
<!-- Generator: Adobe Illustrator 22.1.0, SVG Export Plug-In . SVG Version: 6.00 Build 0)  -->
<svg version="1.1" id="Calque_1" xmlns="http://www.w3.org/2000/svg" xmlns:xlink="http://www.w3.org/1999/xlink" x="0px" y="0px"
	 viewBox="0 0 500 500" style="enable-background:new 0 0 500 500;" xml:space="preserve">
<g id="icon-not-group-member">
	<g id="Icon_x2F_Source-Security_x2F_Shared-Copy-3" transform="translate(24.000000, 150.000000)">
		<path id="Combined-Shape" d="M133.4,192v-8.3H17V167c0-12.4,42.7-33.3,83.2-33.3c16.4,0,33.2,3.4,47.4,8.4
			c5.4-4.2,11.9-7.9,19.1-11.1c-21.5-9.4-48.8-13.9-66.5-13.9C66.9,117.1,0.3,133,0.3,167v33.3H150l0,0h16.6H150L133.4,192z"/>
		<path id="Shape" d="M96.5,83.9c18.4,0,33.2-15,33.2-33.6s-14.9-33.6-33.2-33.6c-18.4,0-33.2,15-33.2,33.6
			S78.1,83.9,96.5,83.9 M96.5,0c27.5,0,49.8,22.5,49.8,50.4s-22.3,50.4-49.8,50.4c-27.5,0-49.8-22.5-49.8-50.4
			C46.7,22.5,69,0,96.5,0"/>
		<path id="Combined-Shape-Copy" d="M325.9,192v-8.3h116.4V167c0-12.4-42.7-33.3-83.2-33.3c-16.4,0-33.2,3.4-47.4,8.4
			c-5.4-4.2-11.9-7.9-19.1-11.1c21.5-9.4,48.8-13.9,66.5-13.9c33.3,0,99.8,15.9,99.8,49.9v33.3H309.3l0,0h-16.6h16.6L325.9,192z"/>
		<path id="Shape-Copy" d="M358.9,83.9c-18.4,0-33.2-15-33.2-33.6s14.9-33.6,33.2-33.6c18.4,0,33.2,15,33.2,33.6
			S377.2,83.9,358.9,83.9 M358.9,0c-27.5,0-49.8,22.5-49.8,50.4s22.3,50.4,49.8,50.4c27.5,0,49.8-22.5,49.8-50.4
			C408.6,22.5,386.3,0,358.9,0"/>
		<path id="Shape_1_" d="M310.6,183.7H143.7V167c0-12.4,42.9-33.3,83.5-33.3c40.6,0,83.4,20.8,83.5,33.3V183.7
			 M227.1,117.1C193.8,117.1,127,133,127,167v33.3h200.3V167C327.3,133,260.5,117.1,227.1,117.1"/>
		<path id="Shape_2_" d="M227.2,83.9c-18.4,0-33.2-15-33.2-33.6s14.9-33.6,33.2-33.6c18.4,0,33.2,15,33.2,33.6
			S245.5,83.9,227.2,83.9 M227.1,0c-27.5,0-49.8,22.5-49.8,50.4s22.3,50.4,49.8,50.4c27.5,0,49.8-22.5,49.8-50.4
			C276.9,22.5,254.6,0,227.1,0"/>
	</g>
</g>
</svg>
